packages/core/src/svgs/rome.svg

<svg width="24" height="24" viewBox="0 0 24 24" fill="none" xmlns="http://www.w3.org/2000/svg">
<g clip-path="url(#clip0_31_17463)">
<path d="M0 0H24V24H0V0Z" fill="#BE1F3D"/>
<path d="M5.717 6.22729C6.707 6.60443 6.857 7.26015 6.857 11.8244C6.857 16.3887 6.76272 16.6887 5.66129 17.2673C5.597 17.3101 5.57129 17.3701 5.57129 17.3701C5.63129 17.5116 6.71986 17.5459 9.20129 17.5459C12.6513 17.5459 13.0413 17.5201 12.4927 17.2201C12.143 17.0348 11.8531 16.7539 11.657 16.4101C11.3441 15.6816 11.3999 7.86872 11.6827 7.08443C11.9441 6.45443 11.9056 6.42872 12.977 6.52729C15.3041 6.80586 16.3499 8.09158 16.3499 10.7659C16.3499 12.6301 15.8784 13.6887 14.7041 14.5973C14.1299 15.0259 13.8899 15.4801 13.7613 16.3887L13.5856 17.5716H18.857V16.1359C18.857 14.7473 18.8313 14.7216 18.437 15.253C18.0984 15.733 17.8113 15.8101 16.3499 15.8101C14.6784 15.8101 14.1299 15.4801 15.3041 15.2016C16.247 14.9744 17.5756 13.8173 17.9699 12.8573C18.5184 11.623 18.4413 9.53158 17.7856 8.52015C16.427 6.37729 15.2356 5.97443 9.62129 6.00015C6.84843 6.00015 5.34843 6.07729 5.717 6.22729ZM9.69843 6.883C9.77557 7.11015 9.857 9.35586 9.857 11.8973C9.857 15.583 9.77557 16.5644 9.48843 16.7916C8.75986 17.3701 8.40843 16.2601 8.40843 11.7773C8.40843 7.74015 8.72986 6.48015 9.30843 6.48015C9.437 6.48015 9.62129 6.65586 9.69415 6.883H9.69843Z" fill="white"/>
</g>
<defs>
<clipPath id="clip0_31_17463">
<rect width="24" height="24" fill="white"/>
</clipPath>
</defs>
</svg>

<svg xmlns="http://www.w3.org/2000/svg" width="24" height="24" fill="none" viewBox="0 0 24 24"><g clip-path="url(#a)"><path fill="#BE1F3D" d="M0 0h24v24H0z"/><path fill="#fff" d="M5.717 6.227c.99.377 1.14 1.033 1.14 5.597 0 4.565-.094 4.865-1.196 5.443-.064.043-.09.103-.09.103.06.142 1.149.176 3.63.176 3.45 0 3.84-.026 3.292-.326a2.1 2.1 0 0 1-.836-.81c-.313-.728-.257-8.541.026-9.326.261-.63.223-.655 1.294-.557 2.327.279 3.373 1.565 3.373 4.239 0 1.864-.472 2.923-1.646 3.831-.574.429-.814.883-.943 1.792l-.175 1.183h5.271v-1.436c0-1.389-.026-1.414-.42-.883-.339.48-.626.557-2.087.557-1.672 0-2.22-.33-1.046-.608.943-.228 2.272-1.385 2.666-2.345.548-1.234.471-3.325-.184-4.337C16.427 6.377 15.236 5.974 9.62 6c-2.773 0-4.273.077-3.904.227m3.981.656c.078.227.159 2.473.159 5.014 0 3.686-.081 4.667-.369 4.895-.728.578-1.08-.532-1.08-5.015 0-4.037.322-5.297.9-5.297.129 0 .313.176.386.403z"/></g><defs><clipPath id="a"><path fill="#fff" d="M0 0h24v24H0z"/></clipPath></defs></svg>
